SVG_Azure_All/Virtual Machine Image.svg

<?xml version="1.0" encoding="UTF-8" standalone="no"?>
<!-- Generated by Microsoft Visio, SVG Export Virtual Machine Image.svg Page-1 -->

<svg
   xmlns:dc="http://purl.org/dc/elements/1.1/"
   xmlns:cc="http://creativecommons.org/ns#"
   xmlns:rdf="http://www.w3.org/1999/02/22-rdf-syntax-ns#"
   xmlns:svg="http://www.w3.org/2000/svg"
   xmlns="http://www.w3.org/2000/svg"
   xmlns:sodipodi="http://sodipodi.sourceforge.net/DTD/sodipodi-0.dtd"
   xmlns:inkscape="http://www.inkscape.org/namespaces/inkscape"
   width="0.78736138in"
   height="0.70868915in"
   viewBox="0 0 56.689928 51.025603"
   xml:space="preserve"
   class="st7"
   version="1.1"
   id="svg65"
   sodipodi:docname="Virtual Machine Image.svg"
   style="font-size:12px;overflow:visible;color-interpolation-filters:sRGB;fill:none;fill-rule:evenodd;stroke-linecap:square;stroke-miterlimit:3"
   inkscape:version="0.92.5 (2060ec1f9f, 2020-04-08)"><metadata
   id="metadata69"><rdf:RDF><cc:Work
       rdf:about=""><dc:format>image/svg+xml</dc:format><dc:type
         rdf:resource="http://purl.org/dc/dcmitype/StillImage" /></cc:Work></rdf:RDF></metadata><sodipodi:namedview
   pagecolor="#ffffff"
   bordercolor="#666666"
   borderopacity="1"
   objecttolerance="10"
   gridtolerance="10"
   guidetolerance="10"
   inkscape:pageopacity="0"
   inkscape:pageshadow="2"
   inkscape:window-width="640"
   inkscape:window-height="480"
   id="namedview67"
   showgrid="false"
   inkscape:zoom="1.4869072"
   inkscape:cx="37.795348"
   inkscape:cy="34.006413"
   inkscape:window-x="0"
   inkscape:window-y="0"
   inkscape:window-maximized="0"
   inkscape:current-layer="svg65" />
	<style
   type="text/css"
   id="style2">
	<![CDATA[
		.st1 {fill:url(#grad0-6);stroke:none;stroke-linecap:butt;stroke-width:34}
		.st2 {fill:#50e6ff;stroke:none;stroke-linecap:butt;stroke-width:34}
		.st3 {fill:#c3f1ff;stroke:none;stroke-linecap:butt;stroke-width:34}
		.st4 {fill:#9cebff;stroke:none;stroke-linecap:butt;stroke-width:34}
		.st5 {fill:url(#grad0-20);stroke:none;stroke-linecap:butt;stroke-width:34}
		.st6 {fill:#ffffff;stroke:none;stroke-linecap:butt;stroke-width:34}
		.st7 {fill:none;fill-rule:evenodd;font-size:12px;overflow:visible;stroke-linecap:square;stroke-miterlimit:3}
	]]>
	</style>

	<defs
   id="Patterns_And_Gradients">
		<linearGradient
   id="grad0-6"
   x1="0"
   y1="102.02082"
   x2="45.687261"
   y2="102.02082"
   gradientTransform="scale(1.2408273,0.80591393)"
   gradientUnits="userSpaceOnUse">
			<stop
   offset="0"
   stop-color="#0078d4"
   stop-opacity="1"
   id="stop4" />
			<stop
   offset="0.82"
   stop-color="#5ea0ef"
   stop-opacity="1"
   id="stop6" />
		</linearGradient>
		<linearGradient
   id="grad0-20"
   x1="-6.9275901e-05"
   y1="148.06957"
   x2="20.071176"
   y2="148.06957"
   gradientTransform="scale(1.4124733,0.70797799)"
   gradientUnits="userSpaceOnUse">
			<stop
   offset="0"
   stop-color="#1490df"
   stop-opacity="1"
   id="stop9" />
			<stop
   offset="0.98"
   stop-color="#1f56a3"
   stop-opacity="1"
   id="stop11" />
		</linearGradient>
	</defs>
	<g
   id="g63"
   transform="translate(-34.000079,-33.9987)">
		<title
   id="title15">Page-1</title>
		<g
   id="group497-1"
   transform="translate(34,-34.0157)">
			<title
   id="title17">Virtual Machine Image</title>
			<g
   id="group498-2">
				<title
   id="title19">Icon-compute-33</title>
				<g
   id="shape499-3"
   transform="translate(0,-14.2056)">
					<title
   id="title21">Sheet.499</title>
					<path
   d="m 0,117.2 a 1.88981,1.84094 -180 0 0 1.89,1.84 H 54.8 a 1.88981,1.84094 -180 0 0 1.89,-1.84 V 84.06 A 1.88981,1.84094 -180 0 0 54.8,82.22 H 1.89 A 1.88981,1.84094 -180 0 0 0,84.06 Z"
   class="st1"
   id="path23"
   inkscape:connector-curvature="0"
   style="fill:url(#grad0-6);stroke:none;stroke-width:34;stroke-linecap:butt" />
				</g>
				<g
   id="shape500-7"
   transform="translate(28.3465,-21.876)">
					<title
   id="title26">Sheet.500</title>
					<path
   d="m 9.45,102.93 v 10.71 L 0,119.04 V 108.3 Z"
   class="st2"
   id="path28"
   inkscape:connector-curvature="0"
   style="fill:#50e6ff;stroke:none;stroke-width:34;stroke-linecap:butt" />
				</g>
				<g
   id="shape501-9"
   transform="translate(18.8976,-32.5839)">
					<title
   id="title31">Sheet.501</title>
					<path
   d="m 18.9,113.64 -9.42,5.4 -9.48,-5.4 9.48,-5.37 z"
   class="st3"
   id="path33"
   inkscape:connector-curvature="0"
   style="fill:#c3f1ff;stroke:none;stroke-width:34;stroke-linecap:butt" />
				</g>
				<g
   id="shape502-11"
   transform="translate(18.8976,-21.876)">
					<title
   id="title36">Sheet.502</title>
					<path
   d="m 9.45,108.33 v 10.71 L 0,113.64 v -10.71 z"
   class="st4"
   id="path38"
   inkscape:connector-curvature="0"
   style="fill:#9cebff;stroke:none;stroke-width:34;stroke-linecap:butt" />
				</g>
				<g
   id="shape503-13"
   transform="translate(18.8976,-21.876)">
					<title
   id="title41">Sheet.503</title>
					<path
   d="m 0,113.64 9.45,-5.34 v 10.74 z"
   class="st3"
   id="path43"
   inkscape:connector-curvature="0"
   style="fill:#c3f1ff;stroke:none;stroke-width:34;stroke-linecap:butt" />
				</g>
				<g
   id="shape504-15"
   transform="translate(28.3465,-21.876)">
					<title
   id="title46">Sheet.504</title>
					<path
   d="M 9.45,113.64 0,108.3 v 10.74 z"
   class="st4"
   id="path48"
   inkscape:connector-curvature="0"
   style="fill:#9cebff;stroke:none;stroke-width:34;stroke-linecap:butt" />
				</g>
				<g
   id="shape505-17"
   transform="translate(14.2047)">
					<title
   id="title51">Sheet.505</title>
					<path
   d="m 25.51,115.97 c -5.6,-0.86 -5.82,-4.79 -5.79,-11.14 H 8.47 c 0,6.35 0,10.28 -5.7,11.14 A 3.14961,3.06817 -180 0 0 0,119.04 h 28.35 a 3.33858,3.25226 -180 0 0 -2.84,-3.07 z"
   class="st5"
   id="path53"
   inkscape:connector-curvature="0"
   style="fill:url(#grad0-20);stroke:none;stroke-width:34;stroke-linecap:butt" />
				</g>
				<g
   id="shape506-21"
   transform="translate(4.62992,-17.8874)">
					<title
   id="title56">Sheet.506</title>
					<path
   d="M 10.74,89.58 H 2.08 A 2.07874,2.02499 -180 0 0 0,91.61 v 8.47 a 1.03937,1.0125 -180 0 0 1.04,1.01 h 0.69 a 1.03937,1.0125 -180 0 0 1.04,-1.01 v -7.83 h 7.97 a 1.03937,1.0125 -180 0 0 1.01,-1.01 V 90.6 a 1.03937,1.0125 -180 0 0 -1.01,-1.02 z m 0,26.58 h -8 v -7.77 A 1.03937,1.0125 -180 0 0 1.7,107.38 H 1.04 A 1.03937,1.0125 -180 0 0 0,108.39 v 8.59 a 2.07874,2.02499 -180 0 0 2.08,2.06 h 8.66 a 1.07087,1.04318 -180 0 0 1.01,-1.2 v -0.67 a 1.03937,1.0125 -180 0 0 -1.01,-1.01 z M 45.48,89.68 h -8.54 a 1.03937,1.0125 -180 0 0 -1.03,1.01 v 0.64 a 1.03937,1.0125 -180 0 0 1.03,1.11 h 7.97 v 7.7 a 1.03937,1.0125 -180 0 0 1.04,1.01 h 0.73 a 1.03937,1.0125 -180 0 0 1.04,-1.01 V 91.7 a 2.07874,2.02499 -180 0 0 -2.24,-2.02 z m 1.07,17.76 h -0.66 a 1.03937,1.0125 -180 0 0 -1.04,1.01 v 7.8 h -7.91 a 1.03937,1.0125 -180 0 0 -1.03,1.01 v 0.67 a 1.03937,1.0125 -180 0 0 1.03,1.02 h 8.67 a 2.11024,2.05567 -180 0 0 2.11,-2.03 v -8.47 a 1.03937,1.0125 -180 0 0 -1.17,-1.01 z"
   class="st6"
   id="path58"
   inkscape:connector-curvature="0"
   style="fill:#ffffff;stroke:none;stroke-width:34;stroke-linecap:butt" />
				</g>
			</g>
		</g>
	</g>
</svg>

<?xml version="1.0" encoding="UTF-8" standalone="no"?>
<!DOCTYPE svg PUBLIC "-//W3C//DTD SVG 1.1//EN" "http://www.w3.org/Graphics/SVG/1.1/DTD/svg11.dtd">
<!-- Generated by Microsoft Visio, SVG Export Virtual Machine Image.svg Page-1 -->
<svg xmlns="http://www.w3.org/2000/svg" xmlns:xlink="http://www.w3.org/1999/xlink" xmlns:ev="http://www.w3.org/2001/xml-events"
		width="1.73185in" height="1.65332in" viewBox="0 0 124.693 119.039" xml:space="preserve" color-interpolation-filters="sRGB"
		class="st7">
	<style type="text/css">
	<![CDATA[
		.st1 {fill:url(#grad0-6);stroke:none;stroke-linecap:butt;stroke-width:34}
		.st2 {fill:#50e6ff;stroke:none;stroke-linecap:butt;stroke-width:34}
		.st3 {fill:#c3f1ff;stroke:none;stroke-linecap:butt;stroke-width:34}
		.st4 {fill:#9cebff;stroke:none;stroke-linecap:butt;stroke-width:34}
		.st5 {fill:url(#grad0-20);stroke:none;stroke-linecap:butt;stroke-width:34}
		.st6 {fill:#ffffff;stroke:none;stroke-linecap:butt;stroke-width:34}
		.st7 {fill:none;fill-rule:evenodd;font-size:12px;overflow:visible;stroke-linecap:square;stroke-miterlimit:3}
	]]>
	</style>

	<defs id="Patterns_And_Gradients">
		<linearGradient id="grad0-6" x1="0" y1="0" x2="1" y2="0" gradientTransform="rotate(-90 0.5 0.5)">
			<stop offset="0" stop-color="#0078d4" stop-opacity="1"/>
			<stop offset="0.82" stop-color="#5ea0ef" stop-opacity="1"/>
		</linearGradient>
		<linearGradient id="grad0-20" x1="0" y1="0" x2="1" y2="0" gradientTransform="rotate(-90 0.5 0.5)">
			<stop offset="0" stop-color="#1490df" stop-opacity="1"/>
			<stop offset="0.98" stop-color="#1f56a3" stop-opacity="1"/>
		</linearGradient>
	</defs>
	<g>
		<title>Page-1</title>
		<g id="group497-1" transform="translate(34,-34.0157)">
			<title>Virtual Machine Image</title>
			<g id="group498-2">
				<title>Icon-compute-33</title>
				<g id="shape499-3" transform="translate(0,-14.2056)">
					<title>Sheet.499</title>
					<path d="M0 117.2 A1.88981 1.84094 -180 0 0 1.89 119.04 L54.8 119.04 A1.88981 1.84094 -180 0 0 56.69 117.2 L56.69
								 84.06 A1.88981 1.84094 -180 0 0 54.8 82.22 L1.89 82.22 A1.88981 1.84094 -180 0 0 0 84.06 L0 117.2
								 Z" class="st1"/>
				</g>
				<g id="shape500-7" transform="translate(28.3465,-21.876)">
					<title>Sheet.500</title>
					<path d="M9.45 102.93 L9.45 113.64 L0 119.04 L0 108.3 L9.45 102.93 Z" class="st2"/>
				</g>
				<g id="shape501-9" transform="translate(18.8976,-32.5839)">
					<title>Sheet.501</title>
					<path d="M18.9 113.64 L9.48 119.04 L0 113.64 L9.48 108.27 L18.9 113.64 Z" class="st3"/>
				</g>
				<g id="shape502-11" transform="translate(18.8976,-21.876)">
					<title>Sheet.502</title>
					<path d="M9.45 108.33 L9.45 119.04 L0 113.64 L0 102.93 L9.45 108.33 Z" class="st4"/>
				</g>
				<g id="shape503-13" transform="translate(18.8976,-21.876)">
					<title>Sheet.503</title>
					<path d="M0 113.64 L9.45 108.3 L9.45 119.04 L0 113.64 Z" class="st3"/>
				</g>
				<g id="shape504-15" transform="translate(28.3465,-21.876)">
					<title>Sheet.504</title>
					<path d="M9.45 113.64 L0 108.3 L0 119.04 L9.45 113.64 Z" class="st4"/>
				</g>
				<g id="shape505-17" transform="translate(14.2047,1.42109E-14)">
					<title>Sheet.505</title>
					<path d="M25.51 115.97 C19.91 115.11 19.69 111.18 19.72 104.83 L8.47 104.83 C8.47 111.18 8.47 115.11 2.77 115.97
								 A3.14961 3.06817 -180 0 0 0 119.04 L28.35 119.04 A3.33858 3.25226 -180 0 0 25.51 115.97 Z"
							class="st5"/>
				</g>
				<g id="shape506-21" transform="translate(4.62992,-17.8874)">
					<title>Sheet.506</title>
					<path d="M10.74 89.58 L2.08 89.58 A2.07874 2.02499 -180 0 0 -0 91.61 L0 100.08 A1.03937 1.0125 -180 0 0 1.04
								 101.09 L1.73 101.09 A1.03937 1.0125 -180 0 0 2.77 100.08 L2.77 92.25 L10.74 92.25 A1.03937 1.0125
								 -180 0 0 11.75 91.24 L11.75 90.6 A1.03937 1.0125 -180 0 0 10.74 89.58 ZM10.74 116.16 L2.74 116.16
								 L2.74 108.39 A1.03937 1.0125 -180 0 0 1.7 107.38 L1.04 107.38 A1.03937 1.0125 -180 0 0 -0 108.39
								 L0 116.98 A2.07874 2.02499 -180 0 0 2.08 119.04 L10.74 119.04 A1.07087 1.04318 -180 0 0 11.75 117.84
								 L11.75 117.17 A1.03937 1.0125 -180 0 0 10.74 116.16 ZM45.48 89.68 L36.94 89.68 A1.03937 1.0125 -180
								 0 0 35.91 90.69 L35.91 91.33 A1.03937 1.0125 -180 0 0 36.94 92.44 L44.91 92.44 L44.91 100.14 A1.03937
								 1.0125 -180 0 0 45.95 101.15 L46.68 101.15 A1.03937 1.0125 -180 0 0 47.72 100.14 L47.72 91.7 A2.07874
								 2.02499 -180 0 0 45.48 89.68 ZM46.55 107.44 L45.89 107.44 A1.03937 1.0125 -180 0 0 44.85 108.45
								 L44.85 116.25 L36.94 116.25 A1.03937 1.0125 -180 0 0 35.91 117.26 L35.91 117.93 A1.03937 1.0125
								 -180 0 0 36.94 118.95 L45.61 118.95 A2.11024 2.05567 -180 0 0 47.72 116.92 L47.72 108.45 A1.03937
								 1.0125 -180 0 0 46.55 107.44 Z" class="st6"/>
				</g>
			</g>
		</g>
	</g>
</svg>
